packages/components/src/telekom/icons/home/preferred-wifi/default.svg

<?xml version="1.0" encoding="UTF-8"?>
<svg width="24px" height="24px" viewBox="0 0 24 24" version="1.1" xmlns="http://www.w3.org/2000/svg" xmlns:xlink="http://www.w3.org/1999/xlink">
    <title>/svg/icon/home/preferred-wifi/default</title>
    <g id="icon/home/preferred-wifi/default" stroke="none" stroke-width="1" fill="none" fill-rule="evenodd">
        <path d="M12.0064,18 C13.1104,18 14.0064,18.896 14.0064,20 C14.0064,21.104 13.1104,22 12.0064,22 C10.9024,22 10.0064,21.104 10.0064,20 C10.0064,18.896 10.9024,18 12.0064,18 Z M10.9263,13.6006 C11.0753,14.2836 11.3203,14.9296 11.6483,15.5256 C10.1606,15.6434 8.87506,16.47598 8.14663325,17.6881064 L8.0363,17.8826 L6.5993,16.3936 C7.5743,14.9346 9.1263,13.9026 10.9263,13.6006 Z M11.4434,9.0156 C11.1414,9.6586 10.9324,10.3506 10.8314,11.0786 C8.49653043,11.384687 6.44620529,12.588324 5.02961106,14.3298228 L4.8404,14.5706 L3.4334,13.1106 C5.3394,10.7416 8.2064,9.1796 11.4434,9.0156 Z M17.9482,9.26307487 C18.0492,9.2621 18.1402,9.3201 18.1822,9.4121 L18.7712,10.8541 L20.3352,10.9691 C20.4372,10.9801 20.5232,11.0521 20.5522,11.1511 C20.5812,11.2501 20.5482,11.3561 20.4672,11.4221 L19.2742,12.4301 L19.6472,13.9471 C19.6712,14.0481 19.6322,14.1521 19.5482,14.2141 C19.4652,14.2741 19.3532,14.2781 19.2652,14.2251 L17.9412,13.4021 L16.6192,14.2251 C16.5302,14.2781 16.4182,14.2741 16.3352,14.2141 C16.2512,14.1521 16.2122,14.0481 16.2362,13.9471 L16.6092,12.4301 L15.4162,11.4221 C15.3362,11.3541 15.3052,11.2461 15.3372,11.1471 C15.3692,11.0481 15.4582,10.9781 15.5622,10.9721 L17.1262,10.8571 L17.7152,9.4141 C17.7562,9.3221 17.8482,9.26307487 17.9482,9.26307487 Z M12.0063,4.5004 C13.4753,4.5004 14.8953,4.7054 16.2413,5.0874 C15.1493,5.3534 14.1533,5.8654 13.3203,6.5674 C12.8873,6.5254 12.4503,6.5004 12.0063,6.5004 C7.99175455,6.5004 4.38812553,8.25502259 1.91483727,11.0357253 L1.6863,11.2994 L0.2933,9.8544 C3.1353,6.5774 7.3273,4.5004 12.0063,4.5004 Z M17.9439,6.375 C21.0849,6.375 23.6309,8.922 23.6309,12.062 C23.6309,15.203 21.0849,17.75 17.9439,17.75 C14.8029,17.75 12.2569,15.203 12.2569,12.062 C12.2569,8.922 14.8029,6.375 17.9439,6.375 Z M17.9439,7.875 C15.6349,7.875 13.7569,9.754 13.7569,12.062 C13.7569,14.371 15.6349,16.25 17.9439,16.25 C20.2529,16.25 22.1309,14.371 22.1309,12.062 C22.1309,9.754 20.2529,7.875 17.9439,7.875 Z" id="Icon" fill="#000000"></path>
    </g>
</svg>

<svg width="24" height="24" xmlns="http://www.w3.org/2000/svg"><path d="M12.006 18a2 2 0 11-.001 4.001A2 2 0 0112.006 18zm-1.08-4.4c.15.684.394 1.33.722 1.926a4.494 4.494 0 00-3.501 2.162l-.11.195-1.438-1.49a6.494 6.494 0 014.327-2.792zm.517-4.584a7.157 7.157 0 00-.612 2.063 8.985 8.985 0 00-5.801 3.25l-.19.242-1.407-1.46a10.98 10.98 0 018.01-4.095zm6.505.247a.254.254 0 01.234.15l.59 1.441 1.563.115a.255.255 0 01.132.453l-1.193 1.008.373 1.517a.257.257 0 01-.099.267.258.258 0 01-.283.011l-1.324-.823-1.322.823a.257.257 0 01-.383-.278l.373-1.517-1.193-1.008a.257.257 0 01-.079-.275.252.252 0 01.225-.175l1.564-.115.59-1.443a.256.256 0 01.232-.15zM12.006 4.5c1.47 0 2.89.205 4.235.587a7.158 7.158 0 00-2.92 1.48 13.47 13.47 0 00-11.405 4.468l-.23.264L.293 9.854A15.464 15.464 0 0112.006 4.5zm5.938 1.875a5.687 5.687 0 11-.001 11.375 5.687 5.687 0 010-11.375zm0 1.5a4.192 4.192 0 00-4.187 4.187 4.192 4.192 0 004.187 4.188 4.192 4.192 0 004.187-4.188 4.192 4.192 0 00-4.187-4.187z" fill-rule="evenodd"/></svg>
